digitransit-component/packages/digitransit-component-icon/src/assets/bus-local.svg

<svg viewBox="0 0 30 30" fill="none" xmlns="http://www.w3.org/2000/svg">
<path d="M0 24.5002C0 26.4255 1.57553 28.001 3.50074 28.001H24.5002C26.4255 28.001 28 26.4255 28 24.5002V3.49975C28 1.57454 26.4255 0 24.5002 0H3.50074C1.57553 0 0 1.57454 0 3.49975V24.5002Z" fill="#007AC9"/>
<path d="M25.1294 7.40056L20.707 2.98216C20.3435 2.61964 19.7489 2.61964 19.3864 2.98216L14.963 7.40056C14.5995 7.76308 14.8672 8.37156 15.3927 8.37156H16.3598V13.2799H23.7287V8.37156H24.7017C25.1985 8.37156 25.4929 7.76308 25.1294 7.40056ZM18.7028 11.8091H17.5115V10.524H18.7028V11.8091ZM18.7028 9.75546H17.5115V8.47034H18.7028V9.75546ZM20.6764 11.8091H19.4851V10.524H20.6764V11.8091ZM20.6764 9.75546H19.4851V8.47034H20.6764V9.75546ZM11.9601 20.2053L13.0754 20.0848C13.3924 20.0542 13.6631 20.2804 13.6631 20.5975C13.6631 20.8691 13.4675 21.0943 13.1959 21.125L12.0955 21.2603C11.7646 21.3057 11.4771 21.0499 11.4771 20.718C11.4781 20.4612 11.6885 20.235 11.9601 20.2053ZM6.71495 20.2053C6.98561 20.235 7.197 20.4612 7.197 20.718C7.197 21.0499 6.91054 21.3057 6.57963 21.2603L5.47922 21.125C5.20758 21.0943 5.012 20.8691 5.012 20.5975C5.012 20.2814 5.28364 20.0552 5.59973 20.0848L6.71495 20.2053ZM5.29846 14.2213H13.3924C13.5436 15.2466 13.6631 16.512 13.6631 18.3364H5.012C5.012 16.4972 5.13251 15.2308 5.29846 14.2213ZM9.33754 11.9C7.76992 11.9 7.09229 11.9908 5.64517 12.2012C5.16313 12.2615 4.93693 12.5173 4.83123 12.9401C4.68109 13.5427 4.50032 14.5077 4.33437 16.4823C3.88196 16.3766 3.71601 16.347 3.56587 16.347C3.21915 16.347 2.94751 16.6028 2.94751 16.9644C2.94751 17.2805 3.17371 17.5521 3.50463 17.6272L4.22769 17.7783C4.21287 18.2307 4.19707 18.698 4.19707 19.18C4.19707 20.6271 4.30276 22.0436 4.36302 22.3597C4.40846 22.6313 4.60404 22.8724 4.84506 22.9178L5.20659 22.9781V24.2582C5.20659 24.3946 5.34291 24.5003 5.49305 24.5003H6.60827C6.72878 24.5003 6.87991 24.3946 6.87991 24.2582V23.1588C7.61878 23.2339 8.32604 23.2793 9.33656 23.2793C10.3461 23.2793 11.0553 23.2339 11.7932 23.1588V24.2582C11.7932 24.3946 11.9443 24.5003 12.0648 24.5003H13.1801C13.3312 24.5003 13.4665 24.3946 13.4665 24.2582V22.9781L13.8281 22.9178C14.0691 22.8724 14.2647 22.6313 14.3101 22.3597C14.3704 22.0436 14.476 20.6271 14.476 19.18C14.476 18.698 14.4612 18.2307 14.4464 17.7783L15.1705 17.6272C15.5024 17.5521 15.7276 17.2805 15.7276 16.9644C15.7276 16.6028 15.4559 16.347 15.1092 16.347C14.9591 16.347 14.7931 16.3766 14.3407 16.4823C14.1748 14.5077 13.994 13.5436 13.8587 12.9401C13.7688 12.5183 13.512 12.2615 13.0299 12.2012C11.5838 11.9908 10.9052 11.9 9.33754 11.9Z" fill="white"/>
</svg>

<svg xmlns="http://www.w3.org/2000/svg" fill="none" viewBox="0 0 30 30">
 <path fill="#007ac9" d="M0 24.5c0 1.925 1.576 3.501 3.5 3.501h21a3.51 3.51 0 0 0 3.5-3.5V3.5A3.51 3.51 0 0 0 24.5 0h-21A3.51 3.51 0 0 0 0 3.5z"/>
 <path fill="#fff" d="m25.13 7.4-4.423-4.418a.94.94 0 0 0-1.32 0l-4.424 4.419c-.363.362-.096.97.43.97h.967v4.909h7.369V8.372h.973c.496 0 .79-.609.427-.971m-6.427 4.41h-1.191v-1.286h1.19zm0-2.055h-1.191V8.47h1.19zm1.973 2.054h-1.19v-1.285h1.19zm0-2.054h-1.19V8.47h1.19zm-8.716 10.45 1.115-.12c.317-.03.588.195.588.512a.524.524 0 0 1-.467.528l-1.1.135a.543.543 0 0 1-.619-.542.535.535 0 0 1 .483-.513m-5.245 0c.27.03.482.256.482.513a.543.543 0 0 1-.617.542l-1.1-.135a.524.524 0 0 1-.468-.527c0-.317.272-.543.588-.513zm-1.417-5.984h8.094c.152 1.026.271 2.291.271 4.115H5.012c0-1.839.12-3.105.286-4.115m4.04-2.321c-1.568 0-2.246.09-3.693.301-.482.06-.708.316-.814.74-.15.602-.33 1.567-.497 3.541-.452-.105-.618-.135-.768-.135a.6.6 0 0 0-.618.617c0 .317.226.588.557.663l.723.151c-.015.453-.03.92-.03 1.402 0 1.447.105 2.864.165 3.18.045.271.241.512.482.558l.362.06v1.28c0 .137.136.242.286.242h1.115c.12 0 .272-.105.272-.242v-1.1c.739.076 1.446.121 2.457.121s1.718-.045 2.456-.12v1.1c0 .136.151.241.272.241h1.115c.151 0 .287-.105.287-.242v-1.28l.361-.06c.241-.046.437-.287.482-.558.06-.316.166-1.733.166-3.18 0-.482-.015-.95-.03-1.402l.725-.15c.331-.076.557-.348.557-.664a.6.6 0 0 0-.619-.617c-.15 0-.316.03-.768.135-.166-1.974-.347-2.938-.482-3.542-.09-.422-.347-.678-.83-.739-1.445-.21-2.124-.301-3.691-.301"/>
</svg>
